X:0458
M:C|
L:1/8
Q:1/2=86 "Slow"
K:D
a2|f2a2 bc' d'2|abaf e3       d|(fd)(fa) (ba)(fd)|(d/e/f) e4
d2|B2d2 F2  A2 |B2d2 b/c'/d' b2|(ab)(af) Te3   d |(d/e/f) d2 d2:|

